src/lib/packages/icons/src/assets/line/backward.svg

<svg width="24" height="24" viewBox="0 0 24 24" fill="none" xmlns="http://www.w3.org/2000/svg">
<path d="M20.226 5.52199C19.291 5.06999 18.207 5.18903 17.392 5.83303L12.75 9.49807V7.96413C12.75 6.91413 12.166 5.97897 11.226 5.52297C10.291 5.07097 9.20697 5.19 8.39197 5.834L3.28101 9.87014C2.62701 10.3871 2.25098 11.164 2.25098 12.001C2.25098 12.838 2.62701 13.6151 3.28101 14.1321L8.39197 18.1699C8.87897 18.5539 9.462 18.752 10.052 18.752C10.449 18.752 10.85 18.662 11.226 18.481C12.166 18.025 12.75 17.0901 12.75 16.0401V14.5049L17.392 18.1721C17.879 18.5561 18.462 18.7539 19.052 18.7539C19.449 18.7539 19.85 18.6639 20.226 18.4829C21.166 18.0269 21.75 17.092 21.75 16.042V7.96901C21.75 6.91301 21.166 5.97799 20.226 5.52199ZM11.25 16.0371C11.25 16.5151 10.996 16.9219 10.571 17.1279C10.153 17.3309 9.68604 17.278 9.32104 16.991L4.20996 12.9541C3.91796 12.7231 3.75 12.375 3.75 12C3.75 11.625 3.91796 11.2769 4.20996 11.0459L9.32104 7.01003C9.68604 6.72203 10.154 6.67109 10.571 6.87209C10.996 7.07809 11.25 7.48591 11.25 7.96291V16.0371ZM20.25 16.0371C20.25 16.5151 19.996 16.9219 19.571 17.1279C19.152 17.3309 18.686 17.278 18.321 16.991L13.21 12.9541C12.918 12.7231 12.75 12.375 12.75 12C12.75 11.625 12.918 11.2769 13.21 11.0459L18.321 7.01003C18.686 6.72203 19.153 6.67109 19.571 6.87209C19.996 7.07809 20.25 7.48591 20.25 7.96291V16.0371Z" fill="currentColor"/>
</svg>

<svg xmlns="http://www.w3.org/2000/svg" width="24" height="24" fill="none"><path fill="currentColor" d="M20.226 5.522a2.664 2.664 0 0 0-2.834.311L12.75 9.498V7.964c0-1.05-.584-1.985-1.524-2.441a2.664 2.664 0 0 0-2.834.311L3.281 9.87a2.701 2.701 0 0 0-1.03 2.131c0 .837.376 1.614 1.03 2.131l5.111 4.038c.487.384 1.07.582 1.66.582a2.706 2.706 0 0 0 2.698-2.712v-1.535l4.642 3.667c.487.384 1.07.582 1.66.582a2.706 2.706 0 0 0 2.698-2.712V7.969a2.693 2.693 0 0 0-1.524-2.447ZM11.25 16.037c0 .478-.254.885-.679 1.09a1.16 1.16 0 0 1-1.25-.136L4.21 12.954A1.21 1.21 0 0 1 3.75 12c0-.375.168-.723.46-.954L9.321 7.01a1.164 1.164 0 0 1 1.25-.138c.425.206.679.614.679 1.09v8.075Zm9 0c0 .478-.254.885-.679 1.09a1.16 1.16 0 0 1-1.25-.136l-5.111-4.037a1.21 1.21 0 0 1-.46-.954c0-.375.168-.723.46-.954l5.111-4.036a1.164 1.164 0 0 1 1.25-.138c.425.206.679.614.679 1.09v8.075Z"/></svg>
